X: 1604
T: Coey's Hornpipe   #2
%S: s:2 b:14(6.3+7.7)
R: hornpipe
B: O'Neill's 1850 #1604
O: J.O'Neill
Z: Michael D. Long, 10/02/98
Z: Michael Hogan
M: C|
L: 1/8
K: G
(3(DEF) |: GdBG FcAF | GABG D2(GF) |1 EGAB cBAG | FAd^c (3(fed) (3(ecA) :|2 E>edc BAGF | A2G2 G2 :: (AG) |
| FAd^c dBAG | FAd^c dfed | ^cdef gece | d^cde d2d=c || BcBA GBec | ABAG FAdf | egfe dcBA | G2B2 G2 :|
